svg/microfocus.svg

<svg height="24" viewBox="0 0 24 24" width="24" xmlns="http://www.w3.org/2000/svg"><path d="m1 5h4v14h14v4h-18zm4-4h18v18h-4v-14h-14z" fill="#0078ef" fill-rule="evenodd"/></svg>

<!DOCTYPE svg PUBLIC "-//W3C//DTD SVG 1.1//EN" "http://www.w3.org/Graphics/SVG/1.1/DTD/svg11.dtd">
<!-- Uploaded to: SVG Repo, www.svgrepo.com, Transformed by: SVG Repo Mixer Tools -->
<svg width="256px" height="256px" viewBox="0 0 24.00 24.00" xmlns="http://www.w3.org/2000/svg" fill="#000000" stroke="#000000" stroke-width="0.00024000000000000003">
<g id="SVGRepo_bgCarrier" stroke-width="0"/>
<g id="SVGRepo_tracerCarrier" stroke-linecap="round" stroke-linejoin="round" stroke="#CCCCCC" stroke-width="0.384"/>
<g id="SVGRepo_iconCarrier"> <path fill="#0078EF" fill-rule="evenodd" d="M1,5 L5,5 L5,19 L19,19 L19,23 L1,23 L1,5 Z M5,1 L23,1 L23,19 L19,19 L19,5 L5,5 L5,1 Z"/> </g>
</svg>
